src/components/ProtocolIcon/ronin.svg

<svg width="16" height="16" viewBox="0 0 16 16" fill="none" xmlns="http://www.w3.org/2000/svg">
<path fill-rule="evenodd" clip-rule="evenodd" d="M2 1.23082V11.1019C2.00012 11.2863 2.0439 11.4683 2.1281 11.6345C2.21231 11.8006 2.33478 11.9468 2.48649 12.062L7.39189 15.7975C7.56445 15.9286 7.77893 16 8 16C8.22107 16 8.43555 15.9286 8.60813 15.7975L13.5135 12.062C13.6652 11.9468 13.7877 11.8006 13.8719 11.6345C13.9561 11.4683 13.9999 11.2863 14 11.1019V1.23082C14 0.904379 13.8633 0.591319 13.62 0.360497C13.3768 0.129675 13.0468 0 12.7027 0H3.2973C2.95323 0 2.62326 0.129675 2.37997 0.360497C2.13668 0.591319 2 0.904379 2 1.23082Z" fill="#004DE5" style="fill:#004DE5;fill:color(display-p3 0.0000 0.3020 0.8980);fill-opacity:1;"/>
<path d="M11.9976 5.72732V3.24244C11.9976 2.91292 11.8628 2.5969 11.6229 2.36391C11.3829 2.1309 11.0574 2 10.718 2H5.27961C4.94024 2 4.61476 2.1309 4.37479 2.36391C4.13481 2.5969 4 2.91292 4 3.24244V10.4524C4.00012 10.6386 4.0433 10.8223 4.12636 10.9901C4.20941 11.1578 4.33022 11.3052 4.47986 11.4216L6.46007 12.9653C6.48357 12.9839 6.51201 12.9955 6.54207 12.9989C6.57213 13.0024 6.60258 12.9975 6.62988 12.9848C6.65719 12.9721 6.68022 12.9522 6.69631 12.9273C6.71241 12.9024 6.72089 12.8736 6.72079 12.8442V7.74627C6.72079 7.70511 6.73764 7.66557 6.76764 7.63647C6.79763 7.60737 6.83832 7.59099 6.88074 7.59099H8.32032C8.57485 7.59099 8.81896 7.68915 8.99893 7.86393C9.1789 8.03865 9.28001 8.27565 9.28001 8.52279V12.8442C9.28008 12.8735 9.28855 12.9021 9.30464 12.9269C9.32066 12.9516 9.3436 12.9714 9.37078 12.9841C9.39789 12.9968 9.42819 13.0017 9.45811 12.9984C9.4881 12.9951 9.51646 12.9836 9.53996 12.9653L11.5202 11.4216C11.6698 11.3052 11.7906 11.1578 11.8736 10.9901C11.9567 10.8223 11.9999 10.6386 12 10.4524V8.21223C12 7.88271 11.8652 7.56669 11.6252 7.33365C11.3852 7.10067 11.0598 6.96975 10.7204 6.96975C11.0594 6.96915 11.3842 6.83799 11.6237 6.60507C11.8631 6.37208 11.9976 6.05642 11.9976 5.72732ZM8.3187 6.34856H6.87914C6.83672 6.34856 6.79603 6.33218 6.76604 6.30308C6.73604 6.27392 6.71919 6.23444 6.71919 6.19322V3.39774C6.71919 3.35656 6.73604 3.31706 6.76604 3.28793C6.79603 3.2588 6.83672 3.24244 6.87914 3.24244H9.1185C9.16089 3.24244 9.20159 3.2588 9.23158 3.28793C9.26156 3.31706 9.27846 3.35656 9.27846 3.39774V5.4167C9.27846 5.66384 9.17734 5.90084 8.99731 6.07562C8.81734 6.25034 8.57323 6.34856 8.3187 6.34856Z" fill="url(#paint0_linear_3692_146)" style=""/>
<defs>
<linearGradient id="paint0_linear_3692_146" x1="8.00003" y1="2" x2="8.00003" y2="13" gradientUnits="userSpaceOnUse">
<stop stop-color="white" style="stop-color:white;stop-color:white;stop-opacity:1;"/>
<stop offset="0.458333" stop-color="white" style="stop-color:white;stop-color:white;stop-opacity:1;"/>
<stop offset="1" stop-color="white" style="stop-color:white;stop-color:white;stop-opacity:1;"/>
</linearGradient>
</defs>
</svg>

<svg xmlns="http://www.w3.org/2000/svg" width="16" height="16" fill="none"><path fill="#004DE5" fill-rule="evenodd" d="M2 1.23v9.872c0 .184.044.366.128.532s.207.313.358.428l4.906 3.736c.172.13.387.202.608.202s.436-.071.608-.203l4.906-3.735c.151-.115.274-.261.358-.428s.128-.348.128-.532V1.23a1.2 1.2 0 0 0-.38-.87A1.33 1.33 0 0 0 12.703 0H3.297c-.344 0-.674.13-.917.36a1.2 1.2 0 0 0-.38.87" clip-rule="evenodd" style="fill:#004de5;fill:color(display-p3 0 .302 .898);fill-opacity:1"/><path fill="url(#a)" d="M11.998 5.727V3.242c0-.33-.135-.645-.375-.878A1.3 1.3 0 0 0 10.718 2H5.28a1.3 1.3 0 0 0-.905.364c-.24.233-.375.549-.375.878v7.21c0 .187.043.37.126.538s.204.315.354.432l1.98 1.543q.037.028.082.034a.16.16 0 0 0 .154-.072.15.15 0 0 0 .025-.083V7.746c0-.04.017-.08.047-.11q.047-.044.113-.045h1.44c.254 0 .498.098.678.273s.281.412.281.659v4.321q0 .045.025.083a.164.164 0 0 0 .235.038l1.98-1.543c.15-.117.27-.264.354-.432s.126-.351.126-.538v-2.24c0-.33-.135-.645-.375-.878a1.3 1.3 0 0 0-.905-.364 1.3 1.3 0 0 0 .904-.365c.24-.233.374-.549.374-.878m-3.68.622H6.88a.16.16 0 0 1-.113-.046.15.15 0 0 1-.047-.11V3.398q.001-.063.047-.11.047-.045.113-.046h2.24c.042 0 .083.017.113.046q.045.047.046.11v2.019a.92.92 0 0 1-.28.659.98.98 0 0 1-.68.273"/><defs><linearGradient id="a" x1="8" x2="8" y1="2" y2="13" gradientUnits="userSpaceOnUse"><stop stop-color="#fff" style="stop-color:white;stop-opacity:1"/><stop offset=".458" stop-color="#fff" style="stop-color:white;stop-opacity:1"/><stop offset="1" stop-color="#fff" style="stop-color:white;stop-opacity:1"/></linearGradient></defs></svg>
